SVG/RiesgoBiologico.svg

<?xml version="1.0" encoding="UTF-8" standalone="no"?>
<svg
   width="61"
   height="53"
   viewBox="0 0 61 53"
   fill="none"
   version="1.1"
   id="svg5"
   sodipodi:docname="RiesgoBiologico.svg"
   inkscape:version="1.3.2 (091e20e, 2023-11-25, custom)"
   xmlns:inkscape="http://www.inkscape.org/namespaces/inkscape"
   xmlns:sodipodi="http://sodipodi.sourceforge.net/DTD/sodipodi-0.dtd"
   xmlns="http://www.w3.org/2000/svg"
   xmlns:svg="http://www.w3.org/2000/svg">
  <sodipodi:namedview
     id="namedview5"
     pagecolor="#ffffff"
     bordercolor="#000000"
     borderopacity="0.25"
     inkscape:showpageshadow="2"
     inkscape:pageopacity="0.0"
     inkscape:pagecheckerboard="0"
     inkscape:deskcolor="#d1d1d1"
     inkscape:zoom="7.9150943"
     inkscape:cx="3.8533969"
     inkscape:cy="41.50298"
     inkscape:window-width="1920"
     inkscape:window-height="1017"
     inkscape:window-x="-8"
     inkscape:window-y="-8"
     inkscape:window-maximized="1"
     inkscape:current-layer="svg5" />
  <g
     clip-path="url(#clip0_18_4065)"
     id="g5"
     transform="matrix(0.99788767,0,0,0.79917894,0.00145738,0)">
    <path
       d="M 60.2843,49.8236 31.9818,0.797816 C 31.6926,0.299181 31.164,0 30.5956,0 30.0271,0 29.4986,0.309154 29.2094,0.797816 L 0.906848,49.8236 c -0.289209,0.4987 -0.289209,1.107 0,1.5957 0.289212,0.4986 0.817762,0.7978 1.386202,0.7978 H 58.8981 c 0.5685,0 1.097,-0.3092 1.3862,-0.7978 0.2892,-0.4987 0.2892,-1.107 0,-1.5957 z"
       fill="#000000"
       id="path1" />
    <path
       d="M 5.07471,49.0186 30.6048,4.99023 56.135,49.0186 Z"
       fill="#f6bd16"
       id="path2" />
    <path
       d="m 29.9716,21.5889 c -3.5887,0.3214 -6.4076,3.3362 -6.4076,7.0079 0,3.3449 2.3373,6.147 5.4667,6.863 -0.0097,-0.071 -0.0168,-0.1423 -0.0168,-0.2159 0,-0.7585 0.5335,-1.3924 1.2444,-1.5513 v -0.6812 c -2.7739,-0.1798 -4.971,-2.4892 -4.971,-5.3083 0,-2.7213 2.0472,-4.9672 4.6843,-5.2812 z m 1.2681,0 v 0.833 c 2.6371,0.314 4.6843,2.5599 4.6843,5.2812 0,2.8191 -2.1971,5.1285 -4.971,5.3083 v 0.6812 c 0.7109,0.1589 1.2411,0.7928 1.2411,1.5513 0,0.0735 -0.0038,0.145 -0.0135,0.2159 3.1279,-0.7165 5.4634,-3.5186 5.4634,-6.863 0,-3.6717 -2.816,-6.6865 -6.4043,-7.0079 z m -0.6341,6.2323 c -1.6039,0 -3.0891,0.5099 -4.3032,1.3759 0.1395,0.4021 0.3366,0.7776 0.5767,1.1197 1.0363,-0.7852 2.3271,-1.2512 3.7265,-1.2512 1.3996,0 2.6902,0.4659 3.7266,1.2512 0.2393,-0.3416 0.434,-0.7183 0.5733,-1.1197 -1.2139,-0.8655 -2.6964,-1.3759 -4.2999,-1.3759 z"
       fill="#000000"
       id="path3" />
    <path
       d="m 19.0945,42.6233 c 2.0727,2.9472 6.0931,3.8811 9.2729,2.0453 2.8967,-1.6725 4.1548,-5.0978 3.2101,-8.1659 -0.0566,0.0439 -0.1147,0.0858 -0.1785,0.1226 -0.6569,0.3792 -1.4727,0.2341 -1.9657,-0.3021 l -0.59,0.3406 c 1.2313,2.4922 0.3299,5.5496 -2.1115,6.9592 -2.3567,1.3606 -5.3254,0.7107 -6.9159,-1.4162 z m -0.634,-1.0981 0.7214,-0.4165 c -1.0467,-2.4408 -0.1252,-5.3367 2.2315,-6.6974 2.4414,-1.4095 5.5399,-0.6615 7.0826,1.6509 l 0.5899,-0.3406 c -0.2178,-0.6951 0.0661,-1.4712 0.723,-1.8505 0.0637,-0.0367 0.1275,-0.0692 0.1937,-0.0962 -2.1845,-2.3506 -5.7789,-2.9721 -8.6752,-1.3 -3.1798,1.8359 -4.3827,5.7819 -2.8669,9.0503 z m 5.7143,-2.5671 c 0.802,1.389 1.9862,2.4203 3.3433,3.0388 0.2784,-0.3219 0.5051,-0.6804 0.6813,-1.0593 -1.1982,-0.5049 -2.2471,-1.3897 -2.9469,-2.6017 -0.6998,-1.2121 -0.9416,-2.5627 -0.7797,-3.8529 -0.4155,-0.0364 -0.839,-0.0167 -1.2563,0.0633 -0.1426,1.4841 0.1566,3.0232 0.9583,4.4118 z"
       fill="#000000"
       id="path4" />
    <path
       d="m 42.7499,41.5335 c 1.516,-3.2686 0.3146,-7.2173 -2.8652,-9.0531 -2.8968,-1.6725 -6.4922,-1.0493 -8.6769,1.3028 0.0663,0.0271 0.1316,0.0565 0.1954,0.0933 0.6569,0.3793 0.9391,1.1583 0.7212,1.8534 l 0.59,0.3406 c 1.5427,-2.3124 4.6412,-3.0604 7.0826,-1.6509 2.3567,1.3607 3.2781,4.2566 2.2315,6.6974 z m -0.634,1.0982 -0.7214,-0.4165 c -1.5905,2.1268 -4.5592,2.7768 -6.9159,1.4161 -2.4414,-1.4095 -3.3428,-4.4669 -2.1115,-6.9591 l -0.59,-0.3406 c -0.493,0.5362 -1.3071,0.6784 -1.964,0.2991 -0.0637,-0.0368 -0.1237,-0.0758 -0.1802,-0.1196 -0.9435,3.0671 0.3155,6.4907 3.2118,8.1629 3.1798,1.8359 7.1986,0.9046 9.2712,-2.0423 z m -5.0803,-3.6652 c 0.8019,-1.3891 1.1029,-2.9303 0.96,-4.4147 -0.4179,-0.0802 -0.8417,-0.0973 -1.258,-0.0604 0.1618,1.29 -0.08,2.6409 -0.7797,3.8528 -0.6998,1.2121 -1.7486,2.0969 -2.9469,2.6018 0.1762,0.378 0.405,0.7349 0.683,1.0563 1.3566,-0.6185 2.5399,-1.6472 3.3416,-3.0358 z"
       fill="#000000"
       id="path5" />
  </g>
  <defs
     id="defs5">
    <clipPath
       id="clip0_18_4065">
      <rect
         width="59.8362"
         height="52.3567"
         fill="white"
         transform="translate(0.6875)"
         id="rect5" />
    </clipPath>
  </defs>
  <text
     xml:space="preserve"
     style="font-size:9.84004px;line-height:8.36791px;font-family:Arial;-inkscape-font-specification:Arial;fill:#000000;stroke-width:2.01644;stroke-miterlimit:3.6;stroke-dasharray:8.06576, 2.01644"
     x="-0.47875065"
     y="42.970772"
     id="text5"
     transform="scale(0.84951616,1.1771406)"><tspan
       sodipodi:role="line"
       x="-0.47875065"
       y="42.970772"
       id="tspan6"
       style="stroke-width:2.01644">Riesgo biologico</tspan></text>
</svg>

<svg width="61" height="53" viewBox="0 0 61 53" fill="none" xmlns="http://www.w3.org/2000/svg">
<g clip-path="url(#clip0_18_4065)">
<path d="M60.2843 49.8236L31.9818 0.797816C31.6926 0.299181 31.164 0 30.5956 0C30.0271 0 29.4986 0.309154 29.2094 0.797816L0.906848 49.8236C0.617639 50.3223 0.617639 50.9306 0.906848 51.4193C1.19606 51.9179 1.72461 52.2171 2.29305 52.2171H58.8981C59.4666 52.2171 59.9951 51.9079 60.2843 51.4193C60.5735 50.9206 60.5735 50.3123 60.2843 49.8236Z" fill="black"/>
<path d="M5.07471 49.0186L30.6048 4.99023L56.135 49.0186H5.07471Z" fill="#F6BD16"/>
<path d="M29.9716 21.5889C26.3829 21.9103 23.564 24.9251 23.564 28.5968C23.564 31.9417 25.9013 34.7438 29.0307 35.4598C29.021 35.3888 29.0139 35.3175 29.0139 35.2439C29.0139 34.4854 29.5474 33.8515 30.2583 33.6926V33.0114C27.4844 32.8316 25.2873 30.5222 25.2873 27.7031C25.2873 24.9818 27.3345 22.7359 29.9716 22.4219V21.5889ZM31.2397 21.5889V22.4219C33.8768 22.7359 35.924 24.9818 35.924 27.7031C35.924 30.5222 33.7269 32.8316 30.953 33.0114V33.6926C31.6639 33.8515 32.1941 34.4854 32.1941 35.2439C32.1941 35.3174 32.1903 35.3889 32.1806 35.4598C35.3085 34.7433 37.644 31.9412 37.644 28.5968C37.644 24.9251 34.828 21.9103 31.2397 21.5889ZM30.6056 27.8212C29.0017 27.8212 27.5165 28.3311 26.3024 29.1971C26.4419 29.5992 26.639 29.9747 26.8791 30.3168C27.9154 29.5316 29.2062 29.0656 30.6056 29.0656C32.0052 29.0656 33.2958 29.5315 34.3322 30.3168C34.5715 29.9752 34.7662 29.5985 34.9055 29.1971C33.6916 28.3316 32.2091 27.8212 30.6056 27.8212Z" fill="black"/>
<path d="M19.0945 42.6233C21.1672 45.5705 25.1876 46.5044 28.3674 44.6686C31.2641 42.9961 32.5222 39.5708 31.5775 36.5027C31.5209 36.5466 31.4628 36.5885 31.399 36.6253C30.7421 37.0045 29.9263 36.8594 29.4333 36.3232L28.8433 36.6638C30.0746 39.156 29.1732 42.2134 26.7318 43.623C24.3751 44.9836 21.4064 44.3337 19.8159 42.2068L19.0945 42.6233ZM18.4605 41.5252L19.1819 41.1087C18.1352 38.6679 19.0567 35.772 21.4134 34.4113C23.8548 33.0018 26.9533 33.7498 28.496 36.0622L29.0859 35.7216C28.8681 35.0265 29.152 34.2504 29.8089 33.8711C29.8726 33.8344 29.9364 33.8019 30.0026 33.7749C27.8181 31.4243 24.2237 30.8028 21.3274 32.4749C18.1476 34.3108 16.9447 38.2568 18.4605 41.5252ZM24.1748 38.9581C24.9768 40.3471 26.161 41.3784 27.5181 41.9969C27.7965 41.675 28.0232 41.3165 28.1994 40.9376C27.0012 40.4327 25.9523 39.5479 25.2525 38.3359C24.5527 37.1238 24.3109 35.7732 24.4728 34.483C24.0573 34.4466 23.6338 34.4663 23.2165 34.5463C23.0739 36.0304 23.3731 37.5695 24.1748 38.9581Z" fill="black"/>
<path d="M42.7499 41.5335C44.2659 38.2649 43.0645 34.3162 39.8847 32.4804C36.9879 30.8079 33.3925 31.4311 31.2078 33.7832C31.2741 33.8103 31.3394 33.8397 31.4032 33.8765C32.0601 34.2558 32.3423 35.0348 32.1244 35.7299L32.7144 36.0705C34.2571 33.7581 37.3556 33.0101 39.797 34.4196C42.1537 35.7803 43.0751 38.6762 42.0285 41.117L42.7499 41.5335ZM42.1159 42.6317L41.3945 42.2152C39.804 44.342 36.8353 44.992 34.4786 43.6313C32.0372 42.2218 31.1358 39.1644 32.3671 36.6722L31.7771 36.3316C31.2841 36.8678 30.47 37.01 29.8131 36.6307C29.7494 36.5939 29.6894 36.5549 29.6329 36.5111C28.6894 39.5782 29.9484 43.0018 32.8447 44.674C36.0245 46.5099 40.0433 45.5786 42.1159 42.6317ZM37.0356 38.9665C37.8375 37.5774 38.1385 36.0362 37.9956 34.5518C37.5777 34.4716 37.1539 34.4545 36.7376 34.4914C36.8994 35.7814 36.6576 37.1323 35.9579 38.3442C35.2581 39.5563 34.2093 40.4411 33.011 40.946C33.1872 41.324 33.416 41.6809 33.694 42.0023C35.0506 41.3838 36.2339 40.3551 37.0356 38.9665Z" fill="black"/>
</g>
<defs>
<clipPath id="clip0_18_4065">
<rect width="59.8362" height="52.3567" fill="white" transform="translate(0.6875)"/>
</clipPath>
</defs>
</svg>
